X:0110151
T:[ID 1-15]
T:Bezeichnung standardisiert: Menuett
T:Men\"uet
C:Urheber unbekannt
C:Datum in der hier transkribierten schriftlichen Quelle: vermutlich vor 1767
O:Deutschland; Westfalen; Dinker
S:"Tanzsammlung Dahlhoff" Staatsbibliothek zu Berlin, Musiksammlung, Mus. ms. 40182, Buch 01, 015/1, PDF Nr: 21
S:Scan online: http://resolver.staatsbibliothek-berlin.de/SBB0000969000000021
F:http://simonwascher.info/TradArchiv/Dahlhoff/ file-version 2017-11-21
Z:Erfassung in abc Jan Kristof Schliep
Z:Erfassungsdatum:  2014-09-29
M:3/4
L:1/8
K:A ion
A4Bc | E4\
d2 |\ %auftakt
cBcAf2 | e4a2 | gfgef2 | e4\
d2 | cBcABG | A4 ::
"e"f2cAf2 | e4d2 | e2cAf2 | e4a2 | a2gfg2 | a2gfb2 | B2e2^d2 | e4\
e2 | ABcAB2 | E4\
e2 | ABcAB2 | E4e2 | dcdBcd | edece2 | E2A2G2 | A6 ::

